src/topics/icons/phonegap.svg

<svg height="279" preserveAspectRatio="xMidYMid" viewBox="0 0 256 279" width="256" xmlns="http://www.w3.org/2000/svg"><g><path d="m242.562388 40.6566784c-.824294-21.5057366-19.727485-26.016199-19.727485-26.016199s-65.517477-9.87300399-94.219577-13.45729342c-28.7113617-3.60281289-26.923848 24.21942342-26.923848 24.21942342s6.520257 202.7855736 7.196364 227.9033846c.768724 29.924649 28.702101 25.10855 28.702101 25.10855l98.711516-17.069368c17.949232-3.593552 18.838358-26.006937 18.838358-26.006937s-11.660518-171.2030756-12.577429-194.6815606c-.824294-21.5057366.916911 23.478485 0 0zm-22.079964 172.2589116-73.399208 7.603881s-21.376073 3.260129-21.857683-22.709762c-.351946-19.134734-4.584556-128.7380437-4.584556-128.7380437s-1.472615-20.0979536 20.523993-18.4493657c22.450433 1.6671113 76.24256 5.7607959 76.24256 5.7607959s14.401989 3.42684 15.031787 19.8386253c.676106 17.8380915 6.890727 116.9015532 6.890727 116.9015532s1.620803 16.282121-18.84762 19.792316z"/><path d="m40.7956042 183.370672-13.5591724.96322s-13.6795748 1.852347-13.9944736-13.114609c-.2222816-11.03072-1.5930175-73.6400138-1.5930175-73.6400138s-.9446965-11.5864236 13.1238711-10.6417271c3.5657659.2315433 8.6226704.5557038 14.2074934.8891261-.1944963-10.3823991-.3612074-19.4588943-.4908716-26.3681447-7.7428061-.5834891-14.9854788-1.2132866-20.1627858-1.7597287-18.58829167-2.0468423-17.44909891 13.5591724-17.44909891 13.5591724s2.24133866 114.8269258 2.65811642 128.9047558c.5093952 16.782254 18.57902999 14.059306 18.57902999 14.059306l19.2921831-2.065366c-.1667111-8.326296-.3889926-18.940238-.6112742-30.785991z"/><path d="m94.7266568 79.0002396c-.0648321-1.4633533-.305637-2.7970423-.6761062-3.9918054-5.9367688-.48161-20.838892-4.3622748-25.6179446.685368-3.0285856 3.1767732-1.7782522 9.8730039-1.7041583 13.6795748 6.3905936.3612076 10.8084386.6112742 10.8084386.6112742s9.2154212 1.9727485 9.6136756 11.4197128c.4260396 10.299043.3704692 67.990359.3704692 67.990359s1.0373137 9.409916-12.0402487 11.401188l-6.8629418.509396c.037047 2.046842.0740938 3.695431.0926173 4.917979.2871136 16.448832 17.7825212 11.178908 28.7576706 10.113808.9446967-17.449098-.7316763-35.426116-1.1206689-52.884477-.4723483-21.477952-.6483211-42.992949-1.6208028-64.4523774-.0648321-1.4633533.5927507 13.1331329 0 0z"/><path d="m100.404097 203.079634-19.7737929 1.907916s-18.440104 2.648854-18.8383583-18.597553c-.2871137-15.680109-2.1394596-104.555668-2.1394596-104.555668s-1.2781187-16.4303086 17.6435952-15.1151431c4.8624081.3334223 11.5493771.8798644 18.8290966 1.4633534-.5464419-17.0508445-.9817433-30.4988762-1.2040248-37.4266501-9.9656212-.9724817-19.3570152-1.954225-26.3033126-2.7507337-25.0066704-2.8340894-23.4321764 19.2736597-23.4321764 19.2736597s2.9730153 163.0249678 3.5565042 182.9469488c.6761063 23.811907 25.0066705 19.986813 25.0066705 19.986813l27.9982091-3.58429c-.277851-9.270992-.7502-24.839959-1.342951-43.548653z"/><path d="m140.637052 57.5500735c-3.500934-.2778519-7.752068-.0463086-10.345353 2.6859016-2.741472 2.8711362-2.787781 6.9462973-2.630331 10.6324659 9.919312.8613408 17.115677 1.5004001 17.115677 1.5004001s12.392194 2.7877807 12.95716 16.2172889c.574227 14.605748 4.12147 93.969511 4.12147 93.969511s1.389259 13.346153-16.226551 16.22655l-13.336892 1.278119c1.768991 20.848153 28.729887 12.04951 42.520603 10.623204-1.417045-31.350955-5.807105-128.3120047-6.798111-151.0773365-10.456492-.8150323-20.440637-1.5652323-27.377672-2.056104-.685369-.0555704 6.937035.4908717 0 0z"/></g></svg>

<?xml version="1.0" encoding="UTF-8" standalone="no" ?>
<svg width="256px" height="279px" viewBox="0 0 256 279" version="1.1" xmlns="http://www.w3.org/2000/svg" xmlns:xlink="http://www.w3.org/1999/xlink" preserveAspectRatio="xMidYMid">
    <g fill="#000000">
        <path d="M242.562388,40.6566784 C241.738094,19.1509418 222.834903,14.6404794 222.834903,14.6404794 C222.834903,14.6404794 157.317426,4.76747541 128.615326,1.18318598 C99.9039643,-2.41962691 101.691478,25.4026094 101.691478,25.4026094 C101.691478,25.4026094 108.211735,228.188183 108.887842,253.305994 C109.656566,283.230643 137.589943,278.414544 137.589943,278.414544 L236.301459,261.345176 C254.250691,257.751624 255.139817,235.338239 255.139817,235.338239 C255.139817,235.338239 243.479299,64.1351634 242.562388,40.6566784 C241.738094,19.1509418 243.479299,64.1351634 242.562388,40.6566784 L242.562388,40.6566784 L242.562388,40.6566784 Z M220.482424,212.91559 L147.083216,220.519471 C147.083216,220.519471 125.707143,223.7796 125.225533,197.809709 C124.873587,178.674975 120.640977,69.0716653 120.640977,69.0716653 C120.640977,69.0716653 119.168362,48.9737117 141.16497,50.6222996 C163.615403,52.2894109 217.40753,56.3830955 217.40753,56.3830955 C217.40753,56.3830955 231.809519,59.8099355 232.439317,76.2217208 C233.115423,94.0598123 239.330044,193.123274 239.330044,193.123274 C239.330044,193.123274 240.950847,209.405395 220.482424,212.91559 L220.482424,212.91559 L220.482424,212.91559 Z"></path>
        <path d="M40.7956042,183.370672 L27.2364318,184.333892 C27.2364318,184.333892 13.556857,186.186239 13.2419582,171.219283 C13.0196766,160.188563 11.6489407,97.5792692 11.6489407,97.5792692 C11.6489407,97.5792692 10.7042442,85.9928456 24.7728118,86.9375421 C28.3385777,87.1690854 33.3954822,87.4932459 38.9803052,87.8266682 C38.7858089,77.4442691 38.6190978,68.3677739 38.4894336,61.4585235 C30.7466275,60.8750344 23.5039548,60.2452369 18.3266478,59.6987948 C-0.261643866,57.6519525 0.877548894,73.2579672 0.877548894,73.2579672 C0.877548894,73.2579672 3.11888755,188.084893 3.53566531,202.162723 C4.04506051,218.944977 22.1146953,216.222029 22.1146953,216.222029 L41.4068784,214.156663 C41.2401673,205.830367 41.0178858,195.216425 40.7956042,183.370672 L40.7956042,183.370672 L40.7956042,183.370672 Z"></path>
        <path d="M94.7266568,79.0002396 C94.6618247,77.5368863 94.4210198,76.2031973 94.0505506,75.0084342 C88.1137818,74.5268242 73.2116586,70.6461594 68.432606,75.6938022 C65.4040204,78.8705754 66.6543538,85.5668061 66.7284477,89.373377 C73.1190413,89.7345846 77.5368863,89.9846512 77.5368863,89.9846512 C77.5368863,89.9846512 86.7523075,91.9573997 87.1505619,101.404364 C87.5766015,111.703407 87.5210311,169.394723 87.5210311,169.394723 C87.5210311,169.394723 88.5583448,178.804639 75.4807824,180.795911 L68.6178406,181.305307 C68.6548876,183.352149 68.6919344,185.000738 68.7104579,186.223286 C68.9975715,202.672118 86.4929791,197.402194 97.4681285,196.337094 C98.4128252,178.887996 96.7364522,160.910978 96.3474596,143.452617 C95.8751113,121.974665 95.6991385,100.459668 94.7266568,79.0002396 C94.6618247,77.5368863 95.3194075,92.1333725 94.7266568,79.0002396 L94.7266568,79.0002396 L94.7266568,79.0002396 Z"></path>
        <path d="M100.404097,203.079634 L80.6303041,204.98755 C80.6303041,204.98755 62.1902001,207.636404 61.7919458,186.389997 C61.5048321,170.709888 59.6524862,81.834329 59.6524862,81.834329 C59.6524862,81.834329 58.3743675,65.4040204 77.2960814,66.7191859 C82.1584895,67.0526082 88.8454585,67.5990503 96.125178,68.1825393 C95.5787361,51.1316948 95.1434347,37.6836631 94.9211532,30.7558892 C84.955532,29.7834075 75.564138,28.8016642 68.6178406,28.0051555 C43.6111702,25.1710661 45.1856642,47.2788152 45.1856642,47.2788152 C45.1856642,47.2788152 48.1586795,210.303783 48.7421684,230.225764 C49.4182747,254.037671 73.7488389,250.212577 73.7488389,250.212577 L101.747048,246.628287 C101.469197,237.357295 100.996848,221.788328 100.404097,203.079634 L100.404097,203.079634 L100.404097,203.079634 Z"></path>
        <path d="M140.637052,57.5500735 C137.136118,57.2722216 132.884984,57.5037649 130.291699,60.2359751 C127.550227,63.1071113 127.503918,67.1822724 127.661368,70.868441 C137.58068,71.7297818 144.777045,72.3688411 144.777045,72.3688411 C144.777045,72.3688411 157.169239,75.1566218 157.734205,88.58613 C158.308432,103.191878 161.855675,182.555641 161.855675,182.555641 C161.855675,182.555641 163.244934,195.901794 145.629124,198.782191 L132.292232,200.06031 C134.061223,220.908463 161.022119,212.10982 174.812835,210.683514 C173.39579,179.332559 169.00573,82.3715093 168.014724,59.6061775 C157.558232,58.7911452 147.574087,58.0409452 140.637052,57.5500735 C139.951683,57.4945031 147.574087,58.0409452 140.637052,57.5500735 L140.637052,57.5500735 L140.637052,57.5500735 Z"></path>
    </g>
</svg>
